packages/web-icons/svgs/arrow_5_down.svg

<svg viewBox="0 0 36 21" xmlns="http://www.w3.org/2000/svg" class="ridi_icon"><path d="M36 3c0 .3-.1.6-.3.9L18.9 20.7c-.3.3-.5.3-.9.3-.5 0-.6-.2-.9-.3L.3 3.9C.2 3.6 0 3.3 0 3c0-.3.2-.6.3-.9L2.1.3c.3-.1.6-.3.9-.3.3 0 .6.2.9.3l14.2 14.2L32.4.5c.3-.3.4-.3.9-.3s.6.2.9.3L36 2.3c-.2.1 0 .4 0 .7z"/></svg>

<?xml version="1.0" encoding="UTF-8"?>
<svg width="36px" height="21px" viewBox="0 0 36 21" version="1.1" xmlns="http://www.w3.org/2000/svg">
  <!-- Generator: Sketch 41.2 (35397) - http://www.bohemiancoding.com/sketch -->
  <title>arrow_5_down</title>
  <desc>Created with Sketch.</desc>
  <defs></defs>
  <g id="Page-1" stroke="none" stroke-width="1" fill="none" fill-rule="evenodd">
    <g id="arrow_5_down" fill="#000000">
      <g id="Layer_1">
        <path d="M36,3 C36,3.3 35.9,3.6 35.7,3.9 L18.9,20.7 C18.6,21 18.4,21 18,21 C17.5,21 17.4,20.8 17.1,20.7 L0.3,3.9 C0.2,3.6 0,3.3 0,3 C0,2.7 0.2,2.4 0.3,2.1 L2.1,0.3 C2.4,0.2 2.7,0 3,0 C3.3,0 3.6,0.2 3.9,0.3 L18.1,14.5 L32.4,0.5 C32.7,0.2 32.8,0.2 33.3,0.2 C33.8,0.2 33.9,0.4 34.2,0.5 L36,2.3 C35.8,2.4 36,2.7 36,3 L36,3 Z" id="Shape"></path>
      </g>
    </g>
  </g>
</svg>
